X: 1
T: New Row
M: 4/4
L: 1/8
R: strathspey
K: Gmaj
(3def|:gd ed BG G2|DG Bd cA A2|gd ed (3BcB GD|[1EG FA G2 (3def:|[2EG FA G4||
B2 Bd c2 cd|B2 Bd AF Ac|B2 Bd c2 Bc|(3dcB (3cBA G4:|
